assets/icons/moduleIcons/pages.svg

<svg xmlns="http://www.w3.org/2000/svg" viewBox="0 0 50 50"><g id="pages"><path id="path1739" fill="#000" d="M5,43.77V6.23H45V43.77Zm4.92-4.93H40.09V11.16H9.91Zm3.29-3.12V29.08h6.64v6.64Zm0-8.76V14.68H36.72V27Zm8.44,8.76V29.08h6.64v6.64Zm8.44,0V29.08h6.64v6.64Z"/></g></svg>

<svg width="50" height="50" viewBox="0 0 50 50" fill="none" xmlns="http://www.w3.org/2000/svg">
<path d="M5 43.77V6.22998H45V43.77H5ZM9.92 38.84H40.09V11.16H9.91L9.92 38.84ZM13.21 35.72V29.08H19.85V35.72H13.21ZM13.21 26.96V14.68H36.72V27L13.21 26.96ZM21.65 35.72V29.08H28.29V35.72H21.65ZM30.09 35.72V29.08H36.73V35.72H30.09Z" fill="#000"/>
</svg>
